!!!!SEGMENT:Yachiyorenbo.krn
!!!OTL: 八千代れんぼ
!!!OPR:Eiga Banso Kyokusyu,jidai-geki,kouhen
!!!YOY:1928
!!!ONB:Bugi
**kern
*clefG2
*k[]
*C:
*M2/4
=1
8ccL
8bJ
8ccL
8bJ
=2
8ccL
8ccJ
8r
8ee
=3
8ccL
8b
8a
8aJ
=4
8bL
8a
8bJ
8r
=5
4aa
8ffL
8eeJ
=6
8ddL
8eeJ
4ff
=7
4a
8fL
8eJ
=8
8dL
8eJ
4f
=9
4r
4f
=10
4a
8bL
8aJ
=11
8bL
8ddJ
8eeL
8eeJ
=12
8ddL
8eeJ
4ff
4r
4ff
=14
4aa
4bb
=15
4ff
8eeL
8eeJ
=16
8r
8ccL
8b
8aJ
=17
8fL
8aJ
4b
=18
4b
4b
==
*-
!!!ENC: Yukiko Yoden
!!!END: 2023/06/11
